public/images/poses-lg/BalancingTable.svg

<svg width="800" height="800" fill="none" xmlns="http://www.w3.org/2000/svg"><path d="m513.717 604.06 5.031 91.198c.002.042.002.086.002.131l-.125 9.515-.472 35.526c-.076 5.789-.155 11.576-.233 17.362-.067 5.142-1.331 10.944.981 15.802.756 1.591 2.272 2.558 3.869 3.306 4.058 1.895 15.998 2.331 23.65 3.931 5.073 1.066 17.786 3.865 22.42 6.766 1.621 1.011.83 3.533-1.079 3.509l-54.272-.615c-.246-.002-.887.142-1.132.142-6.161.029-9.169-3.008-10.103-7.583-3.398-16.641-9.965-43.739-11.302-80.916-.749-20.952-8.091-58.71-11.711-76.28" fill="#fff"/><path d="m513.717 604.06 5.031 91.198c.002.042.002.086.002.131l-.125 9.515-.472 35.526c-.076 5.789-.155 11.576-.233 17.362-.067 5.142-1.331 10.944.981 15.802.756 1.591 2.272 2.558 3.869 3.306 4.058 1.895 15.998 2.331 23.65 3.931 5.073 1.066 17.786 3.865 22.42 6.766 1.621 1.011.83 3.533-1.079 3.509l-54.272-.615c-.246-.002-.887.142-1.132.142-6.161.029-9.169-3.008-10.103-7.583-3.398-16.641-9.965-43.739-11.302-80.916-.749-20.952-8.091-58.71-11.711-76.28" stroke="#000" stroke-width="5" stroke-miterlimit="10"/><path d="m513.717 604.06 5.031 91.198c.002.042.002.086.002.131l-.125 9.515-.472 35.526c-.076 5.789-.155 11.576-.233 17.362-.067 5.142-1.331 10.944.981 15.802.756 1.591 2.272 2.558 3.869 3.306 4.058 1.895 15.998 2.331 23.65 3.931 5.073 1.066 17.786 3.865 22.42 6.766 1.621 1.011.83 3.533-1.079 3.509l-54.272-.615c-.246-.002-.887.142-1.132.142-6.161.029-9.169-3.008-10.103-7.583-3.398-16.641-9.965-43.739-11.302-80.916-.749-20.952-8.091-58.71-11.711-76.28" stroke="#000" stroke-width="5" stroke-miterlimit="10"/><path d="M414.483 559.52c24.371-8.114 60.502-19.145 74.81-11.987 14.308 7.152 25.865 10.689 31.439 31.55 1.067 4.004-10.04 1.668-10.836 4.949-.483 1.989 5.18.213 4.181 1.976-1.108 1.954-.506 17.53-.506 17.53-6.835 7.41-16.101 10.163-22.626 14.71-11.609 8.09-12.818 12.271-29.193 12.541-16.375.269-30.222-6.42-48.384-6.672-18.164-.253-31.625 2.998-31.625 2.998s-12.064-10.181-12.686-25.746c-.623-15.567-.528-27.671 3.819-37.204.001-.004 27.71-.019 41.607-4.645Z" fill="#fff" stroke="#000" stroke-width="5" stroke-miterlimit="10"/><path d="M414.483 559.52c24.371-8.114 60.502-19.145 74.81-11.987 14.308 7.152 25.865 10.689 31.439 31.55 1.067 4.004-10.04 1.668-10.836 4.949-.483 1.989 5.18.213 4.181 1.976-1.108 1.954-.506 17.53-.506 17.53-6.835 7.41-16.101 10.163-22.626 14.71-11.609 8.09-12.818 12.271-29.193 12.541-16.375.269-30.222-6.42-48.384-6.672-18.164-.253-31.625 2.998-31.625 2.998s-12.064-10.181-12.686-25.746c-.623-15.567-.528-27.671 3.819-37.204.001-.004 27.71-.019 41.607-4.645Z" stroke="#000" stroke-width="5" stroke-miterlimit="10"/><path d="M328.305 569.195c-18.331-3.706-54.132.185-82.367 3.958-28.234 3.772-54.443-5.815-96.724-1.699-42.283 4.113-117.43 9.445-127.833 11.415-10.403 1.973-10.768 8.175-10.23 18.426.54 10.246 4.212 33.555 6.2 43.012 1.99 9.455 10.489 12.006 16.556 12.752 6.072.75 8.258-2.357 5.117-6.85-3.137-4.499-5.183-2.521-5.734-8.727-.55-6.198-.91-30.032 4.934-33.176 5.846-3.146 14.706-4.894 31.699-3.258 16.995 1.639 40.063 1.695 78.367 9.44 38.302 7.75 161.133 20.524 166.529 18.185 5.394-2.336 13.486-63.478 13.486-63.478Z" fill="#fff" stroke="#000" stroke-width="5" stroke-miterlimit="10"/><path d="M328.305 569.195c-18.331-3.706-54.132.185-82.367 3.958-28.234 3.772-54.443-5.815-96.724-1.699-42.283 4.113-117.43 9.445-127.833 11.415-10.403 1.973-10.768 8.175-10.23 18.426.54 10.246 4.212 33.555 6.2 43.012 1.99 9.455 10.489 12.006 16.556 12.752 6.072.75 8.258-2.357 5.117-6.85-3.137-4.499-5.183-2.521-5.734-8.727-.55-6.198-.91-30.032 4.934-33.176 5.846-3.146 14.706-4.894 31.699-3.258 16.995 1.639 40.063 1.695 78.367 9.44 38.302 7.75 161.133 20.524 166.529 18.185 5.394-2.336 13.486-63.478 13.486-63.478Z" stroke="#000" stroke-width="5" stroke-miterlimit="10"/><path d="M304.261 582.821c9.386-14.976 24.135-22.091 46.373-20.374l22.24 1.714s-5.682 19.84-4.609 29.311c1.072 9.472 2 20.337 13.479 33.64 0 0-16.166 1.328-18.977 16.303-2.812 14.979-3.801 103.008-8.927 122.434-5.126 19.422-13.851 22.887-25.809 25.334-11.958 2.451-77.014-23.074-104.982-33.03-27.968-9.959-59.919-26.153-69.369-14.829-4.541 5.44-5.318 30.914-.906 37.733 4.413 6.821 7.639 3.338 7.958 8.316.322 4.982-13.876 4.857-18.272.212-4.308-4.55-5.039-8.343-8.07-18.611-4.607-15.611-8.571-19.787-10.266-35.172-.274-2.489-.265-5.027.24-7.48.389-1.905 1.09-4.044 2.339-5.77 4.586-6.34 12.94-4.392 23.736-4.064 10.794.332 56.834.332 80.392.332 23.559 0 59.009-.407 71.037 6.113 0 0-6.422-62.678-6.089-95.856.335-33.177 8.482-46.256 8.482-46.256Z" fill="#fff" stroke="#000" stroke-width="5" stroke-miterlimit="10"/><path d="M304.261 582.821c9.386-14.976 24.135-22.091 46.373-20.374l22.24 1.714s-5.682 19.84-4.609 29.311c1.072 9.472 2 20.337 13.479 33.64 0 0-16.166 1.328-18.977 16.303-2.812 14.979-3.801 103.008-8.927 122.434-5.126 19.422-13.851 22.887-25.809 25.334-11.958 2.451-77.014-23.074-104.982-33.03-27.968-9.959-59.919-26.153-69.369-14.829-4.541 5.44-5.318 30.914-.906 37.733 4.413 6.821 7.639 3.338 7.958 8.316.322 4.982-13.876 4.857-18.272.212-4.308-4.55-5.039-8.343-8.07-18.611-4.607-15.611-8.571-19.787-10.266-35.172-.274-2.489-.265-5.027.24-7.48.389-1.905 1.09-4.044 2.339-5.77 4.586-6.34 12.94-4.392 23.736-4.064 10.794.332 56.834.332 80.392.332 23.559 0 59.009-.407 71.037 6.113 0 0-6.422-62.678-6.089-95.856.335-33.177 8.482-46.256 8.482-46.256ZM513.717 604.06l-.666-12.087M513.717 604.06l-.666-12.087M83.521 577.759s-3.395 14.812 0 27.794" stroke="#000" stroke-width="5" stroke-miterlimit="10"/><path d="M190.907 718.789s-5.16 10.197-3.892 25.791" stroke="#000" stroke-width="5" stroke-miterlimit="10"/><path d="M558.656 530.365c6.397-6.427 16.532-25.783-7.426-30.662-19.684-4.014-14.551-11.164-28.135-21.086-10.928-7.978-27.302 2.365-24.45 29.907 2.594 25.066 17.015 19.206 33.299 16.361 16.283-2.845 26.712 5.48 26.712 5.48Z" fill="#000" stroke="#000" stroke-width="5" stroke-miterlimit="10"/><path d="M530.742 562.606c2.932-7.241 10.193-8.868 16.027-15.174 9.273-10.02 29.894-5.429 38.686 7.04 11.606 16.459-44.038 61.9-52.253 53.555-4.868-4.95-8.132-18.407-4.852-32.687 1.053-4.59 2.392-12.734 2.392-12.734Z" fill="#fff" stroke="#000" stroke-width="5" stroke-miterlimit="10"/><path d="M530.742 562.606c2.932-7.241 10.193-8.868 16.027-15.174 9.273-10.02 29.894-5.429 38.686 7.04 11.606 16.459-44.038 61.9-52.253 53.555-4.868-4.95-8.132-18.407-4.852-32.687 1.053-4.59 2.392-12.734 2.392-12.734Z" stroke="#000" stroke-width="5" stroke-miterlimit="10"/><path d="M584.123 566.271c-10.032 7.629-33.661 14.541-40.255-.424-7.409-16.818-11.232-4.529-12.991-1.353-1.755 3.174-1.346 13.879-3.193 13.08-1.847-.797-9.972-25.667 2.766-38.851 12.739-13.187 22.906-15.6 33.15-11.691 10.242 3.905 23.16 18.643 24.452 29.617 1.292 10.972-3.929 9.622-3.929 9.622Z" fill="#000" stroke="#000" stroke-width="5" stroke-miterlimit="10"/><path d="M495.008 591.154s108.541 12.573 131.852 10.781c23.31-1.792 102.916-21.738 102.916-21.738 15.016-2.71 27.257.763 44.374-6.908 17.109-7.671 15.106-9.616 12.972-11.444-2.135-1.824-45.008-7.506-58.032 2.112-4.288 3.166-5.131 3.148-7.812 4.071l-98.588 8.894-119.885-22.506" fill="#fff"/><path d="M495.008 591.154s108.541 12.573 131.852 10.781c23.31-1.792 102.916-21.738 102.916-21.738 15.016-2.71 27.257.763 44.374-6.908 17.109-7.671 15.106-9.616 12.972-11.444-2.135-1.824-45.008-7.506-58.032 2.112-4.288 3.166-5.131 3.148-7.812 4.071l-98.588 8.894-119.885-22.506" stroke="#000" stroke-width="5" stroke-miterlimit="10"/><path d="M495.008 591.154s108.541 12.573 131.852 10.781c23.31-1.792 102.916-21.738 102.916-21.738 15.016-2.71 27.257.763 44.374-6.908 17.109-7.671 15.106-9.616 12.972-11.444-2.135-1.824-45.008-7.506-58.032 2.112-4.288 3.166-5.131 3.148-7.812 4.071l-98.588 8.894-119.885-22.506" stroke="#000" stroke-width="5" stroke-miterlimit="10"/><path d="M464.949 546.155c8.261 18.991 38.867 18.929 56.41 11.745" stroke="#000" stroke-width="5" stroke-miterlimit="10"/></svg>

<svg width="800" height="800" viewBox="0 0 800 800" fill="none" xmlns="http://www.w3.org/2000/svg">
<path d="M513.717 604.06L518.748 695.258C518.75 695.3 518.75 695.344 518.75 695.389L518.625 704.904C518.467 716.746 518.31 728.592 518.153 740.43C518.077 746.219 517.998 752.006 517.92 757.792C517.853 762.934 516.589 768.736 518.901 773.594C519.657 775.185 521.173 776.152 522.77 776.9C526.828 778.795 538.768 779.231 546.42 780.831C551.493 781.897 564.206 784.696 568.84 787.597C570.461 788.608 569.67 791.13 567.761 791.106L513.489 790.491C513.243 790.489 512.602 790.633 512.357 790.633C506.196 790.662 503.188 787.625 502.254 783.05C498.856 766.409 492.289 739.311 490.952 702.134C490.203 681.182 482.861 643.424 479.241 625.854" fill="white"/>
<path d="M513.717 604.06L518.748 695.258C518.75 695.3 518.75 695.344 518.75 695.389L518.625 704.904C518.467 716.746 518.31 728.592 518.153 740.43C518.077 746.219 517.998 752.006 517.92 757.792C517.853 762.934 516.589 768.736 518.901 773.594C519.657 775.185 521.173 776.152 522.77 776.9C526.828 778.795 538.768 779.231 546.42 780.831C551.493 781.897 564.206 784.696 568.84 787.597C570.461 788.608 569.67 791.13 567.761 791.106L513.489 790.491C513.243 790.489 512.602 790.633 512.357 790.633C506.196 790.662 503.188 787.625 502.254 783.05C498.856 766.409 492.289 739.311 490.952 702.134C490.203 681.182 482.861 643.424 479.241 625.854" stroke="black" stroke-width="5" stroke-miterlimit="10"/>
<path d="M513.717 604.06L518.748 695.258C518.75 695.3 518.75 695.344 518.75 695.389L518.625 704.904C518.467 716.746 518.31 728.592 518.153 740.43C518.077 746.219 517.998 752.006 517.92 757.792C517.853 762.934 516.589 768.736 518.901 773.594C519.657 775.185 521.173 776.152 522.77 776.9C526.828 778.795 538.768 779.231 546.42 780.831C551.493 781.897 564.206 784.696 568.84 787.597C570.461 788.608 569.67 791.13 567.761 791.106L513.489 790.491C513.243 790.489 512.602 790.633 512.357 790.633C506.196 790.662 503.188 787.625 502.254 783.05C498.856 766.409 492.289 739.311 490.952 702.134C490.203 681.182 482.861 643.424 479.241 625.854" stroke="black" stroke-width="5" stroke-miterlimit="10"/>
<path d="M414.483 559.52C438.854 551.406 474.985 540.375 489.293 547.533C503.601 554.685 515.158 558.222 520.732 579.083C521.799 583.087 510.692 580.751 509.896 584.032C509.413 586.021 515.076 584.245 514.077 586.008C512.969 587.962 513.571 603.538 513.571 603.538C506.736 610.948 497.47 613.701 490.945 618.248C479.336 626.338 478.127 630.519 461.752 630.789C445.377 631.058 431.53 624.369 413.368 624.117C395.204 623.864 381.743 627.115 381.743 627.115C381.743 627.115 369.679 616.934 369.057 601.369C368.434 585.802 368.529 573.698 372.876 564.165C372.877 564.161 400.586 564.146 414.483 559.52Z" fill="white" stroke="black" stroke-width="5" stroke-miterlimit="10"/>
<path d="M414.483 559.52C438.854 551.406 474.985 540.375 489.293 547.533C503.601 554.685 515.158 558.222 520.732 579.083C521.799 583.087 510.692 580.751 509.896 584.032C509.413 586.021 515.076 584.245 514.077 586.008C512.969 587.962 513.571 603.538 513.571 603.538C506.736 610.948 497.47 613.701 490.945 618.248C479.336 626.338 478.127 630.519 461.752 630.789C445.377 631.058 431.53 624.369 413.368 624.117C395.204 623.864 381.743 627.115 381.743 627.115C381.743 627.115 369.679 616.934 369.057 601.369C368.434 585.802 368.529 573.698 372.876 564.165C372.877 564.161 400.586 564.146 414.483 559.52Z" stroke="black" stroke-width="5" stroke-miterlimit="10"/>
<path d="M328.305 569.195C309.974 565.489 274.173 569.38 245.938 573.153C217.704 576.925 191.495 567.338 149.214 571.454C106.931 575.567 31.7844 580.899 21.3812 582.869C10.9779 584.842 10.6134 591.044 11.1517 601.295C11.691 611.541 15.3626 634.85 17.3514 644.307C19.3413 653.762 27.8399 656.313 33.9075 657.059C39.9794 657.809 42.1653 654.702 39.0244 650.209C35.8867 645.71 33.8414 647.688 33.2904 641.482C32.7405 635.284 32.3802 611.45 38.224 608.306C44.0699 605.16 52.9299 603.412 69.9229 605.048C86.9182 606.687 109.986 606.743 148.29 614.488C186.592 622.238 309.423 635.012 314.819 632.673C320.213 630.337 328.305 569.195 328.305 569.195Z" fill="white" stroke="black" stroke-width="5" stroke-miterlimit="10"/>
<path d="M328.305 569.195C309.974 565.489 274.173 569.38 245.938 573.153C217.704 576.925 191.495 567.338 149.214 571.454C106.931 575.567 31.7844 580.899 21.3812 582.869C10.9779 584.842 10.6134 591.044 11.1517 601.295C11.691 611.541 15.3626 634.85 17.3514 644.307C19.3413 653.762 27.8399 656.313 33.9075 657.059C39.9794 657.809 42.1653 654.702 39.0244 650.209C35.8867 645.71 33.8414 647.688 33.2904 641.482C32.7405 635.284 32.3802 611.45 38.224 608.306C44.0699 605.16 52.9299 603.412 69.9229 605.048C86.9182 606.687 109.986 606.743 148.29 614.488C186.592 622.238 309.423 635.012 314.819 632.673C320.213 630.337 328.305 569.195 328.305 569.195Z" stroke="black" stroke-width="5" stroke-miterlimit="10"/>
<path d="M304.261 582.821C313.647 567.845 328.396 560.73 350.634 562.447L372.874 564.161C372.874 564.161 367.192 584.001 368.265 593.472C369.337 602.944 370.265 613.809 381.744 627.112C381.744 627.112 365.578 628.44 362.767 643.415C359.955 658.394 358.966 746.423 353.84 765.849C348.714 785.271 339.989 788.736 328.031 791.183C316.073 793.634 251.017 768.109 223.049 758.153C195.081 748.194 163.13 732 153.68 743.324C149.139 748.764 148.362 774.238 152.774 781.057C157.187 787.878 160.413 784.395 160.732 789.373C161.054 794.355 146.856 794.23 142.46 789.585C138.152 785.035 137.421 781.242 134.39 770.974C129.783 755.363 125.819 751.187 124.124 735.802C123.85 733.313 123.859 730.775 124.364 728.322C124.753 726.417 125.454 724.278 126.703 722.552C131.289 716.212 139.643 718.16 150.439 718.488C161.233 718.82 207.273 718.82 230.831 718.82C254.39 718.82 289.84 718.413 301.868 724.933C301.868 724.933 295.446 662.255 295.779 629.077C296.114 595.9 304.261 582.821 304.261 582.821Z" fill="white" stroke="black" stroke-width="5" stroke-miterlimit="10"/>
<path d="M304.261 582.821C313.647 567.845 328.396 560.73 350.634 562.447L372.874 564.161C372.874 564.161 367.192 584.001 368.265 593.472C369.337 602.944 370.265 613.809 381.744 627.112C381.744 627.112 365.578 628.44 362.767 643.415C359.955 658.394 358.966 746.423 353.84 765.849C348.714 785.271 339.989 788.736 328.031 791.183C316.073 793.634 251.017 768.109 223.049 758.153C195.081 748.194 163.13 732 153.68 743.324C149.139 748.764 148.362 774.238 152.774 781.057C157.187 787.878 160.413 784.395 160.732 789.373C161.054 794.355 146.856 794.23 142.46 789.585C138.152 785.035 137.421 781.242 134.39 770.974C129.783 755.363 125.819 751.187 124.124 735.802C123.85 733.313 123.859 730.775 124.364 728.322C124.753 726.417 125.454 724.278 126.703 722.552C131.289 716.212 139.643 718.16 150.439 718.488C161.233 718.82 207.273 718.82 230.831 718.82C254.39 718.82 289.84 718.413 301.868 724.933C301.868 724.933 295.446 662.255 295.779 629.077C296.114 595.9 304.261 582.821 304.261 582.821Z" stroke="black" stroke-width="5" stroke-miterlimit="10"/>
<path d="M513.717 604.06L513.051 591.973" stroke="black" stroke-width="5" stroke-miterlimit="10"/>
<path d="M513.717 604.06L513.051 591.973" stroke="black" stroke-width="5" stroke-miterlimit="10"/>
<path d="M83.5214 577.759C83.5214 577.759 80.1258 592.571 83.5214 605.553" stroke="black" stroke-width="5" stroke-miterlimit="10"/>
<path d="M190.907 718.789C190.907 718.789 185.747 728.986 187.015 744.58" stroke="black" stroke-width="5" stroke-miterlimit="10"/>
<path d="M558.656 530.365C565.053 523.938 575.188 504.582 551.23 499.703C531.546 495.689 536.679 488.539 523.095 478.617C512.167 470.639 495.793 480.982 498.645 508.524C501.239 533.59 515.66 527.73 531.944 524.885C548.227 522.04 558.656 530.365 558.656 530.365Z" fill="black" stroke="black" stroke-width="5" stroke-miterlimit="10"/>
<path d="M530.742 562.606C533.674 555.365 540.935 553.738 546.769 547.432C556.042 537.412 576.663 542.003 585.455 554.472C597.061 570.931 541.417 616.372 533.202 608.027C528.334 603.077 525.07 589.62 528.35 575.34C529.403 570.75 530.742 562.606 530.742 562.606Z" fill="white" stroke="black" stroke-width="5" stroke-miterlimit="10"/>
<path d="M530.742 562.606C533.674 555.365 540.935 553.738 546.769 547.432C556.042 537.412 576.663 542.003 585.455 554.472C597.061 570.931 541.417 616.372 533.202 608.027C528.334 603.077 525.07 589.62 528.35 575.34C529.403 570.75 530.742 562.606 530.742 562.606Z" stroke="black" stroke-width="5" stroke-miterlimit="10"/>
<path d="M584.123 566.271C574.091 573.9 550.462 580.812 543.868 565.847C536.459 549.029 532.636 561.318 530.877 564.494C529.122 567.668 529.531 578.373 527.684 577.574C525.837 576.777 517.712 551.907 530.45 538.723C543.189 525.536 553.356 523.123 563.6 527.032C573.842 530.937 586.76 545.675 588.052 556.649C589.344 567.621 584.123 566.271 584.123 566.271Z" fill="black" stroke="black" stroke-width="5" stroke-miterlimit="10"/>
<path d="M495.008 591.154C495.008 591.154 603.549 603.727 626.86 601.935C650.17 600.143 729.776 580.197 729.776 580.197C744.792 577.487 757.033 580.96 774.15 573.289C791.259 565.618 789.256 563.673 787.122 561.845C784.987 560.021 742.114 554.339 729.09 563.957C724.802 567.123 723.959 567.105 721.278 568.028L622.69 576.922L502.805 554.416" fill="white"/>
<path d="M495.008 591.154C495.008 591.154 603.549 603.727 626.86 601.935C650.17 600.143 729.776 580.197 729.776 580.197C744.792 577.487 757.033 580.96 774.15 573.289C791.259 565.618 789.256 563.673 787.122 561.845C784.987 560.021 742.114 554.339 729.09 563.957C724.802 567.123 723.959 567.105 721.278 568.028L622.69 576.922L502.805 554.416" stroke="black" stroke-width="5" stroke-miterlimit="10"/>
<path d="M495.008 591.154C495.008 591.154 603.549 603.727 626.86 601.935C650.17 600.143 729.776 580.197 729.776 580.197C744.792 577.487 757.033 580.96 774.15 573.289C791.259 565.618 789.256 563.673 787.122 561.845C784.987 560.021 742.114 554.339 729.09 563.957C724.802 567.123 723.959 567.105 721.278 568.028L622.69 576.922L502.805 554.416" stroke="black" stroke-width="5" stroke-miterlimit="10"/>
<path d="M464.949 546.155C473.21 565.146 503.816 565.084 521.359 557.9" stroke="black" stroke-width="5" stroke-miterlimit="10"/>
</svg>
